X: 21430
T: Kevin And Marlene's
R: strathspey
M: 4/4
K: Emajor
|:B|G<B B>G F>E E<F|G<B e>g f>e c<B|c<e e>c B>c e>G|(3F/F/F/F F>E G<F F>B|
G<B B>G F>E E<F|G<B e>g f>e c<B|c<e e>c B>c e>G|(3F/F/F/F G<F E2 E:|
|:a|g<b b>g f<e (3efg|a>f g<e f>e c<e|B<e e>c B>c e>f|g<e a<g f2 f>a|
g<b b>g f<e (3efg|a>f g<e f>e c<e|B<e e>c B>c e>G|(3F/F/F/F G<F E2 E:|

